X: 12695
T: Father Dollard's
R: hornpipe
M: 4/4
K: Dmajor
D2 ~D2 D>EF>A|d2 f>e d>cB>A|F>A ~A2 d>Af>A|(3Bcd A>F G>E (3GFE|
D2 ~D2 D>EF>A|d2 f>e d>cB>A|F>A ~A2 (3Bcd G>E|F2 D>E D2:|
f>d (3Bcd d2 d>e|f>d (3Bcd bgaf|gece Ac e2|~g3 b agfe|
Ad (3Bcd (3Bcd AF|Ad (3Bcd fdBd|A2 f>a g>eA>c|e2 d>c d2:|

